packages/katcn/src/icons/svg/layout9-solid.svg

<svg width="24" height="25" viewBox="0 0 24 25" fill="none" xmlns="http://www.w3.org/2000/svg">
<path d="M6.3 2.40002H11V22.4H6.3C3.9 22.4 2 20.5 2 18.1V6.70002C2 4.30002 3.9 2.40002 6.3 2.40002Z" fill="black"/>
<path d="M22 6.70002V11.4H13V2.40002H17.7C20.1 2.40002 22 4.30002 22 6.70002Z" fill="black"/>
<path d="M13 13.4H22V18.1C22 20.4 20.1 22.4 17.7 22.4H13V13.4Z" fill="black"/>
</svg>

<svg xmlns="http://www.w3.org/2000/svg" fill="none" viewBox="0 0 24 25"><path fill="#000" d="M6.3 2.4H11v20H6.3c-2.4 0-4.3-1.9-4.3-4.3V6.7c0-2.4 1.9-4.3 4.3-4.3M22 6.7v4.7h-9v-9h4.7c2.4 0 4.3 1.9 4.3 4.3m-9 6.7h9v4.7c0 2.3-1.9 4.3-4.3 4.3H13z"/></svg>
